X: 31132
T: Paddy Fahey's
R: reel
M: 4/4
K: Gmajor
gfdc AGDE|~=F2AF cFAF|GA B/c/d g2af|gfde fgaf|
gfdc AGDE|~=F2AF cFAF|GA B/c/d gfdc|B/c/d cA G3:|
~g3a gfdf|~g2af gfde|fd~d2 ad~d2|fgag fdef|
~g3a gfdf|~g2af gfde|fd~d2 ad e/f/g|fdcA G3z:|

